X:1
T:The Well-Tempered Clavier Part I Fuga XXII
T:BWV 867
T:J. S. Bach
%%score { ( 1 3 4 ) | ( 2 5 ) }
L:1/8
Q:1/4=144
M:2/2
K:Db
V:1 treble nm="Harp"
V:3 treble 
V:4 treble 
V:2 bass 
V:5 bass 
V:1
"^Vivace" B4 F4 | z2 g2 f2 e2 | d2 c2 d2 e2 | f2 =ef =g4- | g2 a=g f4- | f2 ed e2 f2 | g6 fe | %7
 f2 =g2 a4- | a2 =gf g2 =a2 | b6 =a=g | =a2 b2 c'4- | c'2 b=a b2 _a2 | g2 f2 e4- | e2 fg f2 e2 | %14
 d8 | c8 | B8- | B6 e2 | A8- | A4 d4 | c4 f4- | f4 e2 d2 | c4 d4- | d4 c4 | d4 A4 | z2 _c'2 b2 a2 | %26
 g2 f2 g2 a2 | b2 =ab c'4- | c'2 b4 =a2 | b8- | b4 a4 | g8 | f4 _f4 | e8- | e4 a4- | a4 =g4 | %36
 a4 z4 | z2 f2 e2 d2 | c2 A2 B2 c2 | d8- | d4 c4 | d2 _cB c4- | c2 BA B2 =c2 | d6 cB | c2 =d2 e4- | %45
 e2 dc dede | f4 e4- | e2 e2 d2 c2 | BcdB A/4G/4A/4G/4A/4G/4A/4G/4 A/4G/4A/4G/4A/4G/4A/4G/4 | %49
 f4 B4 | z2 _c'2 b2 a2 | g4 _f2 e2 | =d4 e4- | e4 =d4 | e4 z4 | z2 f2 e2 d2 | c2 B2 c2 d2 | %57
 e2 g2 f2 e2 | =d2 f2 e2 _d2 | c4 d4- | d2 c4 B2 | =A2 g2 f2 e2 | d4 c4 | B8 | A8 | G8 | z4 B4 | %67
 F4 z2 g2 | f2 e2 d2 c2 | d2 e2 f2 e2 | d2 c2 B4- | B2 c2 d4- | d2 d2 c2 B2 | B4 =A4 | %74
 !fermata!B8 |] %75
V:2
 z8 | z8 | z8 | z8 | z8 | z8 | z8 | z8 | z8 | z8 | z8 | F,4 B,,4 | z2 D2 C2 B,2 | %13
 =A,2 F,2 =G,2 A,2 | B,2 C,2 D,2 E,2 | F,2 G,2 A,4 | B,8- | B,8 | C2 C,2 D,2 E,2 | %19
 F,2 E,2 F,2 G,2 | A,2 B,C B,2 A,2 | G,2 A,2 B,2 CD | A,8- | A,8- | A,4 z4 | z8 | z8 | z8 | %28
 B,4 F,4 | z2 G2 F2 E2 | =D2 B,2 C2 D2 | E2 F,2 G,2 A,2 | B,2 _C2 D4 | E2 =G,2 A,2 B,2 | %34
 _C2 B,2 A,2 G,2 | _F,4 E,4- | E,2 A,2 G,2 F,2 | E,2 D,2 B,4 | A,2[I:staff -1] G2 F2 E2 | %39
 D2 G4 F2 | E8 |[I:staff +1] A,4[I:staff -1] A2 GF | G2 D4 E2 | %43
[I:staff +1] A,2[I:staff -1] AG A2 E2- | E2 F2[I:staff +1] B,4- | %45
 B,2[I:staff -1] F4[I:staff +1] B,2 | DCB,A, G,F,G,E, | F,4 B,,4 | %48
[I:staff -1] G2[I:staff +1] F2 E4- | E2 DC D4 |[I:staff -1] E4 =D4 | E2 B2 A2 G2 | %52
[I:staff +1] F,4 B,,4 | z2 _C2 B,2 A,2 | G,2 F,2 G,2 A,2 | B,2 CD E4- | E2 D2 C2 B,2 | =A,4 _A,4- | %58
 A,4 G,4- | G,2 F,2 E,2 D,2 | B,6 C2 | D2 C2 D2 E2 | F8- | F4 E2 D2 | _C8 | %65
[I:staff -1] B,2 D2 C2 B,2 |[I:staff +1] =A,4 B,4 | =A,4 z4 | F,4 B,,4 | z2 C2 B,2 =A,2 | %70
 B,2 C2 D2[I:staff -1] E2 |[I:staff +1] B,8 | z8 | C4 F,4- | F,8 |] %75
V:3
 x8 | x8 | F4 B,4 | z2 d2 c2 B2 | A2 =G2 A2 B2 | c6 B=A | B2 c2 d4- | d2 cB c2 =d2 | e6 dc | %9
 d2 e2 f4- | f2 ed e4- | e2 fe d2 c2 | B6 =AB | c2 =A2 B2 c2- | c2 B=A B4- | B4 A4- | A8 | G8- | %18
 G8 | F4 B4 | A4 d4- | d2 c2 B4 | A8- | A2 B2 A2 G2 | F2 E2 F2 G2 | A4 F4 | B4 E4 | z2 g2 f2 e2 | %28
 d4 c4 | =d4 e4 | f8- | f2 e=d e4- | e4 d4- | d2 e_f e2 d2 | _c4 _f4 | _fe d2- dfed | c4 z4 | x8 | %38
 x8 | x8 | x8 | x8 | x8 | x8 | x8 | x8 | z2 d2 c2 B2 | =ABcA F2 _A2 | x8 | F4 B4 | E4 z2 f2 | %51
 e2 d2 c4 | B8- | B8 | B4 E4 | z2 d2 c2 B2 | =A2 =G2 A2 B2 | c2 e2 d2 _c2 | B2 =d2 c2 B2 | =A4 B4 | %60
 E4 =E4 | F2 =A2 B2 c2- | c2 B4 =A2 | B2 A2 G2 F2 | E2 DE F4- | F2 F2 E2 D2 | F8 | F4 B,4 | %68
 z2 c2 B2 =A2 | B2 =A2 B2 c2 | B2 =A2 B4 | A2 G2 F4 | =G8 | F2 G2 F2 E2 | =D8 |] %75
V:4
 x8 | x8 | x8 | x8 | x8 | x8 | x8 | x8 | x8 |[I:staff +1] B,4 F,4 | %10
[I:staff -1] z2[I:staff +1] G2 F2 E2 | D2 C2 B,2 CD | E2 F2 G4 | F2 E2 D2 C2 | %14
[I:staff -1] D2 E2 F2 G2 | C4 F4- | F2 =D2 E2 F2- | F2 E=D E4- | E8 | D4 F4- | F8 | B2 A2 G2 F2 | %22
 E4 F4 | E8 | D2 C2 D2 E2 | F4 =D4 | E6 F2 | G2 F2 =A2 =GF | B2 f2 e4 | B8- | B8- | B8- | B8- | %33
 B8 | A2 B2 _c4 | B8 | A4 z4 | x8 | x8 | x8 | x8 | x8 | x8 | x8 | x8 | x8 | x8 | x8 | x8 | x8 | %50
 x8 | x8 | F4 G4 | F8 | E4 B,4 | x8 | x8 | x8 | x8 | x8 | x8 | x8 | x8 | x8 | x8 | x8 | C2 E4 D2 | %67
 C4 B,4 |[I:staff +1] F,4[I:staff -1] z2 G2 | F2 E2[I:staff +1] D2 C2 | D[I:staff -1]E F4 G2 | %71
 F2 E2 D4 | =G4 C4- | C8 | B,8 |] %75
V:5
 x8 | x8 | x8 | x8 | x8 | x8 | x8 | x8 | x8 | x8 | x8 | x8 | x8 | x8 | B,,4 F,,4 | z2 G,2 F,2 E,2 | %16
 =D,2 B,,2 C,2 D,2 | E,2 F,2 E,2 D,2 | C,2 A,,2 B,,2 C,2 | D,4 B,,4 | F,4 D,4 | E,2 F,2 G,4- | %22
 G,2 F,2 E,2 D,2 | A,4 A,,4 | D,4 z4 | x8 | x8 | x8 | x8 | x8 | x8 | E,4 B,,4 | z2 _C2 B,2 A,2 | %33
 =G,2 E,2 F,2 G,2 | A,2 G,2 _F,2 E,2 | D,2 B,,2 E,2 E,,2 | A,,4 B,,2 A,,2 | G,,4 G,4- | %38
 G,2 F,2 G,2 A,2 | B,4 G,4 | A,2 B,2 A,2 G,2 | F,6 E,D, | E,2 F,2 G,4- | G,2 F,E, F,2 =G,2 | %44
 A,6 =G,F, | =G,2 =A,2 B,CB,C | x8 | x8 | z2 D2 C2 B,2 | =A,2 _A,4 G,F, | G,2 A,2 B,4 | E,4 A,,4- | %52
 A,,2 G,,2 F,,2 E,,2 | B,,8 | E,6 F,2 | G,8- | G,2 F,2 E,2 D,2 | C,4 F,4 | B,,4 E,4- | %59
 E,2 D,2 C,2 B,,2 | G,4 =G,4 | F,8- | F,4 F,,4 | G,,8- | G,,2 F,,2 E,,2 =D,,2 | E,,4 E,4- | %66
 E,2 D,C, D,2 E,2 | F,2 E,2 D,2 C,2 | D,2 =A,,2 B,,4 | F,,4 z2 G,2 | F,2 E,2 D,2 C,2 | %71
 D,2 E,2 F,G,=E,F, | =E,,8 | F,,8 | !fermata!B,,8 |] %75

